X: 5485
T: Bunker Hill
R: reel
M: 4/4
K: Dmixolydian
cA|:GE~E2 D2 ~D2|E/F/G AB cABG|A2AG EFGE|ABce d2 cA:|
Gc~c2 ec~c2|Gccd cBAG|Ad~d2 fd~d2|Adde dcAG|
E/F/G AB cAdB|cAdB c2 Bc|dB cA BG~G2|1 ABcA d2 cA:|2 ABcA d2 ag||
|:fd~d2 fdad|fadf a2 gf|ge~e2 gebe|gbeg b2 ag|
fdde dcAB|cAdB c2 Bc|dB cA BGFG|1 ABcA d2 ag:|2 ABcA d2||

